src/shared/assets/Consult.svg

<svg width="20" height="21" viewBox="0 0 20 21" fill="none" xmlns="http://www.w3.org/2000/svg">
<path id="Union" fill-rule="evenodd" clip-rule="evenodd" d="M1.95658 2.66392C1.95658 2.60388 2.00525 2.55522 2.06528 2.55522H17.9347C17.9947 2.55522 18.0434 2.60388 18.0434 2.66391V14.5902C18.0434 14.6502 17.9947 14.6989 17.9347 14.6989H8.5519L8.26186 15.138C8.25804 15.1438 8.25229 15.1514 8.24363 15.1605L5.15123 18.4067C5.12431 18.4349 5.10666 18.4393 5.09748 18.4411C5.08268 18.4439 5.05916 18.4434 5.03215 18.4326C5.00513 18.4218 4.98776 18.4059 4.979 18.3937C4.97356 18.3861 4.96383 18.3707 4.96383 18.3317V14.6989H2.06528C2.00525 14.6989 1.95658 14.6502 1.95658 14.5902V2.66392ZM2.06528 0.598633C0.924658 0.598633 0 1.52329 0 2.66392V14.5902C0 15.7308 0.924659 16.6555 2.06528 16.6555H3.00724V18.3317C3.00724 20.1959 5.28204 21.106 6.56789 19.7562L9.52177 16.6555H17.9347C19.0753 16.6555 20 15.7308 20 14.5902V2.66391C20 1.52329 19.0753 0.598633 17.9347 0.598633H2.06528ZM5.33734 9.70894C4.73034 9.70894 4.23827 9.22691 4.23827 8.6323C4.23827 8.03769 4.73034 7.55566 5.33734 7.55566C5.94433 7.55566 6.4364 8.03769 6.4364 8.6323C6.4364 9.22691 5.94433 9.70894 5.33734 9.70894ZM9.89062 9.70894C9.28362 9.70894 8.79155 9.22691 8.79155 8.6323C8.79155 8.03769 9.28362 7.55566 9.89062 7.55566C10.4976 7.55566 10.9897 8.03769 10.9897 8.6323C10.9897 9.22691 10.4976 9.70894 9.89062 9.70894ZM14.4439 9.70894C13.8369 9.70894 13.3448 9.22691 13.3448 8.6323C13.3448 8.03769 13.8369 7.55566 14.4439 7.55566C15.0509 7.55566 15.543 8.03769 15.543 8.6323C15.543 9.22691 15.0509 9.70894 14.4439 9.70894Z" fill="#2D2D2D"/>
</svg>

<svg xmlns="http://www.w3.org/2000/svg" width="20" height="21" fill="none"><path fill="#2D2D2D" fill-rule="evenodd" d="M1.957 2.664c0-.06.048-.109.108-.109h15.87c.06 0 .108.049.108.109V14.59c0 .06-.048.109-.108.109H8.552l-.29.439a.163.163 0 0 1-.018.023L5.15 18.407c-.027.028-.044.032-.054.034a.12.12 0 0 1-.065-.008.12.12 0 0 1-.053-.04c-.005-.007-.015-.022-.015-.061v-3.633H2.065a.109.109 0 0 1-.108-.109V2.664ZM2.065.599C.925.599 0 1.523 0 2.664V14.59c0 1.14.925 2.066 2.065 2.066h.942v1.676c0 1.864 2.275 2.774 3.56 1.424l2.955-3.1h8.413c1.14 0 2.065-.925 2.065-2.066V2.664c0-1.14-.925-2.065-2.065-2.065H2.065Zm3.272 9.11c-.607 0-1.099-.482-1.099-1.077 0-.594.492-1.076 1.1-1.076.606 0 1.098.482 1.098 1.076 0 .595-.492 1.077-1.099 1.077Zm4.554 0c-.607 0-1.1-.482-1.1-1.077 0-.594.493-1.076 1.1-1.076.607 0 1.099.482 1.099 1.076 0 .595-.492 1.077-1.1 1.077Zm4.553 0c-.607 0-1.1-.482-1.1-1.077 0-.594.493-1.076 1.1-1.076.607 0 1.099.482 1.099 1.076 0 .595-.492 1.077-1.1 1.077Z" clip-rule="evenodd"/></svg>
